X: 25
T:Moonlight on the Lough (#75)
M:4/4
L:1/8
S:Rice-Walsh manuscripts
K:G
BA|G2 GG GABc|dBge d2 ga|b2 ag edef|gfga g2 d/2c/2B/2A/2|
G2 GG GABc|dBge d2 ga|b2 ag edea|g2 gg g2||
ga|b2 bg edef|gfga b2 GA|B2 ge dBAG|A2 AA A2 d/2c/2B/2A/2|
G2 GG GABc|dBge d2 ga|b2 ag edea|g2 gg g2||

